public/flags/FM.svg

<svg fill="none" height="53" viewBox="0 0 61 53" width="61" xmlns="http://www.w3.org/2000/svg" xmlns:xlink="http://www.w3.org/1999/xlink"><mask id="a" height="43" maskUnits="userSpaceOnUse" width="59" x="1" y="3"><rect fill="#fff" height="42.5" rx="4.24286" width="59" x="1" y="3"/></mask><rect fill="#fff" height="42.5" rx="4.24286" width="59" x="1" y="3"/><g mask="url(#a)"><path d="m1 3h59v42.5h-59z" fill="#95cef5"/><path clip-rule="evenodd" d="m27.1973 17.5011 3.3028-2.2611 3.3028 2.2611-1.1117-3.8665 3.1529-2.469-3.9898-.1285-1.3542-3.7871-1.3541 3.7871-3.9899.1285 3.153 2.469zm0 22.6666 3.3028-2.261 3.3028 2.261-1.1117-3.8664 3.1529-2.4691-3.9898-.1285-1.3542-3.787-1.3541 3.787-3.9899.1285 3.153 2.4691zm14.5409-13.5944-3.3028 2.2611 1.1118-3.8664-3.153-2.4691 3.9899-.1285 1.3541-3.7871 1.3542 3.7871 3.9899.1285-3.153 2.4691 1.1117 3.8664zm-25.779 2.2611 3.3028-2.2611 3.3028 2.2611-1.1117-3.8664 3.1529-2.4691-3.9899-.1285-1.3541-3.7871-1.3541 3.7871-3.9899.1285 3.1529 2.4691z" fill="#fff" fill-rule="evenodd"/></g></svg>

<svg width="61" height="53" viewBox="0 0 61 53" fill="none" xmlns="http://www.w3.org/2000/svg">
<rect x="1" y="3" width="59" height="42.5" rx="4.24286" fill="white"/>
<mask id="mask0" mask-type="alpha" maskUnits="userSpaceOnUse" x="1" y="3" width="59" height="43">
<rect x="1" y="3" width="59" height="42.5" rx="4.24286" fill="white"/>
</mask>
<g mask="url(#mask0)">
<rect x="1" y="3" width="59" height="42.5" fill="#95CEF5"/>
<path fill-rule="evenodd" clip-rule="evenodd" d="M27.1973 17.5011L30.5001 15.24L33.8029 17.5011L32.6912 13.6346L35.8441 11.1656L31.8543 11.0371L30.5001 7.25L29.146 11.0371L25.1561 11.1656L28.3091 13.6346L27.1973 17.5011ZM27.1973 40.1677L30.5001 37.9067L33.8029 40.1677L32.6912 36.3013L35.8441 33.8322L31.8543 33.7037L30.5001 29.9167L29.146 33.7037L25.1561 33.8322L28.3091 36.3013L27.1973 40.1677ZM41.7382 26.5733L38.4354 28.8344L39.5472 24.968L36.3942 22.4989L40.3841 22.3704L41.7382 18.5833L43.0924 22.3704L47.0823 22.4989L43.9293 24.968L45.041 28.8344L41.7382 26.5733ZM15.9592 28.8344L19.262 26.5733L22.5648 28.8344L21.4531 24.968L24.606 22.4989L20.6161 22.3704L19.262 18.5833L17.9079 22.3704L13.918 22.4989L17.0709 24.968L15.9592 28.8344Z" fill="white"/>
</g>
</svg>
